X:1
T:Title
L:1/8
M:4/4
K:A
V:1 treble nm="Grand Piano"
V:1
 z2[Q:1/4=100] A2 A2 AG | A3 G F3 F | G4 A3 B | G>A GF E4 | A4 F3 E | E2 D2 C2 B,2 | C2 D2 E>F ED | %7
 C>D CB, A,4- | A,2 A2 A2 AG | A3 G F3 F | G4 A3 B | G>A GF E4 | d4 c3 B | c2 dc B3 A | %14
 B2 c2 A3 G | AG/A/ BA/B/ cB/c/ BA | A2 z2 z4 |] %17

